flaticon/medical/blood-transfusion.svg

<svg xmlns="http://www.w3.org/2000/svg" width="32" height="32" viewBox="0 0 24 24">
    <path d="M 17.097656 2.398438 L 15.128906 2.398438 C 15.058594 2.398438 15 2.34375 15 2.269531 L 15 1.171875 C 15 0.527344 14.472656 0 13.828125 0 L 10.570312 0 C 9.925781 0 9.398438 0.527344 9.398438 1.171875 L 9.398438 2.269531 C 9.398438 2.34375 9.34375 2.398438 9.269531 2.398438 L 7.300781 2.398438 C 6.253906 2.398438 5.398438 3.253906 5.398438 4.300781 L 5.398438 16.859375 C 5.398438 17.710938 6.089844 18.398438 6.941406 18.398438 L 11.800781 18.398438 L 11.800781 18.800781 L 10.199219 18.800781 C 9.980469 18.800781 9.800781 18.980469 9.800781 19.199219 C 9.800781 19.421875 9.980469 19.601562 10.199219 19.601562 L 10.601562 19.601562 L 10.601562 21.367188 L 11.632812 22.398438 L 11.726562 22.398438 C 11.5625 22.863281 11.121094 23.199219 10.601562 23.199219 C 9.71875 23.199219 9 22.480469 9 21.601562 C 9 21.566406 8.988281 21.539062 8.980469 21.507812 C 8.886719 20.410156 8.074219 19.601562 7 19.601562 C 5.925781 19.601562 5.113281 20.410156 5.019531 21.507812 C 5.011719 21.539062 5 21.566406 5 21.601562 L 5 23.601562 C 5 23.820312 5.179688 24 5.398438 24 C 5.621094 24 5.800781 23.820312 5.800781 23.601562 L 5.800781 21.714844 C 5.800781 20.953125 6.304688 20.398438 7 20.398438 C 7.695312 20.398438 8.199219 20.953125 8.199219 21.714844 C 8.199219 21.726562 8.207031 21.738281 8.207031 21.753906 C 8.289062 23.003906 9.328125 24 10.601562 24 C 11.566406 24 12.375 23.3125 12.558594 22.398438 L 12.765625 22.398438 L 13.800781 21.367188 L 13.800781 19.601562 L 14.199219 19.601562 C 14.421875 19.601562 14.601562 19.421875 14.601562 19.199219 C 14.601562 18.980469 14.421875 18.800781 14.199219 18.800781 L 12.601562 18.800781 L 12.601562 18.398438 L 17.460938 18.398438 C 18.308594 18.398438 19 17.707031 19 16.859375 L 19 4.300781 C 19 3.253906 18.148438 2.398438 17.097656 2.398438 Z M 13 21.035156 L 12.433594 21.601562 L 11.964844 21.601562 L 11.398438 21.035156 L 11.398438 19.601562 L 13 19.601562 Z M 18.199219 16.859375 C 18.199219 17.269531 17.867188 17.601562 17.460938 17.601562 L 12.601562 17.601562 L 12.601562 17.199219 L 15.246094 17.199219 C 15.4375 17.199219 15.621094 17.136719 15.769531 17.015625 L 17.488281 15.640625 C 17.6875 15.484375 17.800781 15.246094 17.800781 14.992188 L 17.800781 4.433594 C 17.800781 3.972656 17.425781 3.601562 16.964844 3.601562 L 7.433594 3.601562 C 6.972656 3.601562 6.601562 3.972656 6.601562 4.433594 L 6.601562 14.992188 C 6.601562 15.246094 6.714844 15.484375 6.914062 15.640625 L 8.632812 17.019531 C 8.777344 17.136719 8.964844 17.199219 9.152344 17.199219 L 11.800781 17.199219 L 11.800781 17.601562 L 6.941406 17.601562 C 6.53125 17.601562 6.199219 17.269531 6.199219 16.859375 L 6.199219 4.300781 C 6.199219 3.695312 6.695312 3.199219 7.300781 3.199219 L 9.269531 3.199219 C 9.78125 3.199219 10.199219 2.78125 10.199219 2.269531 L 10.199219 1.171875 C 10.199219 0.96875 10.367188 0.800781 10.570312 0.800781 L 13.828125 0.800781 C 14.035156 0.800781 14.199219 0.96875 14.199219 1.171875 L 14.199219 2.269531 C 14.199219 2.78125 14.617188 3.199219 15.128906 3.199219 L 17.097656 3.199219 C 17.707031 3.199219 18.199219 3.695312 18.199219 4.300781 Z M 12.199219 15.601562 C 11.980469 15.601562 11.800781 15.777344 11.800781 16 L 11.800781 16.394531 L 10.199219 16.394531 C 10.195312 16.175781 10.019531 16 9.800781 16 C 9.582031 16 9.40625 16.175781 9.402344 16.394531 L 9.132812 16.394531 L 7.398438 14.992188 L 7.398438 4.433594 C 7.398438 4.414062 7.414062 4.398438 7.433594 4.398438 L 9.398438 4.398438 C 9.398438 4.621094 9.578125 4.800781 9.800781 4.800781 C 10.019531 4.800781 10.199219 4.621094 10.199219 4.398438 L 11.800781 4.398438 C 11.800781 4.621094 11.980469 4.800781 12.199219 4.800781 C 12.421875 4.800781 12.601562 4.621094 12.601562 4.398438 L 14.199219 4.398438 C 14.199219 4.621094 14.378906 4.800781 14.601562 4.800781 C 14.820312 4.800781 15 4.621094 15 4.398438 L 16.964844 4.398438 C 16.984375 4.398438 17 4.414062 17 4.433594 L 16.988281 15.019531 L 15.269531 16.390625 C 15.261719 16.398438 15.257812 16.398438 15.246094 16.398438 L 15 16.398438 C 15 16.179688 14.820312 16 14.601562 16 C 14.378906 16 14.199219 16.179688 14.199219 16.398438 L 12.601562 16.398438 L 12.601562 16 C 12.601562 15.777344 12.421875 15.601562 12.199219 15.601562 Z M 12.199219 15.601562"/>
    <path d="M12.601562 20.800781C12.601562 21.019531 12.421875 21.199219 12.199219 21.199219 11.980469 21.199219 11.800781 21.019531 11.800781 20.800781 11.800781 20.578125 11.980469 20.398438 12.199219 20.398438 12.421875 20.398438 12.601562 20.578125 12.601562 20.800781zM13.398438 1.601562L12.601562 1.601562C12.601562 1.378906 12.421875 1.199219 12.199219 1.199219 11.980469 1.199219 11.800781 1.378906 11.800781 1.601562L11 1.601562C10.777344 1.601562 10.601562 1.777344 10.601562 2 10.601562 2.222656 10.777344 2.398438 11 2.398438L11.800781 2.398438C11.800781 2.621094 11.980469 2.800781 12.199219 2.800781 12.421875 2.800781 12.601562 2.621094 12.601562 2.398438L13.398438 2.398438C13.621094 2.398438 13.800781 2.222656 13.800781 2 13.800781 1.777344 13.621094 1.601562 13.398438 1.601562zM9 5.601562C9 5.820312 8.820312 6 8.601562 6 8.378906 6 8.199219 5.820312 8.199219 5.601562 8.199219 5.378906 8.378906 5.199219 8.601562 5.199219 8.820312 5.199219 9 5.378906 9 5.601562zM11.398438 5.601562C11.398438 5.820312 11.222656 6 11 6 10.777344 6 10.601562 5.820312 10.601562 5.601562 10.601562 5.378906 10.777344 5.199219 11 5.199219 11.222656 5.199219 11.398438 5.378906 11.398438 5.601562zM13.800781 5.601562C13.800781 5.820312 13.621094 6 13.398438 6 13.179688 6 13 5.820312 13 5.601562 13 5.378906 13.179688 5.199219 13.398438 5.199219 13.621094 5.199219 13.800781 5.378906 13.800781 5.601562zM16.199219 5.601562C16.199219 5.820312 16.019531 6 15.800781 6 15.578125 6 15.398438 5.820312 15.398438 5.601562 15.398438 5.378906 15.578125 5.199219 15.800781 5.199219 16.019531 5.199219 16.199219 5.378906 16.199219 5.601562zM10.199219 6.800781C10.199219 7.019531 10.019531 7.199219 9.800781 7.199219 9.578125 7.199219 9.398438 7.019531 9.398438 6.800781 9.398438 6.578125 9.578125 6.398438 9.800781 6.398438 10.019531 6.398438 10.199219 6.578125 10.199219 6.800781zM12.601562 6.800781C12.601562 7.019531 12.421875 7.199219 12.199219 7.199219 11.980469 7.199219 11.800781 7.019531 11.800781 6.800781 11.800781 6.578125 11.980469 6.398438 12.199219 6.398438 12.421875 6.398438 12.601562 6.578125 12.601562 6.800781zM15 6.800781C15 7.019531 14.820312 7.199219 14.601562 7.199219 14.378906 7.199219 14.199219 7.019531 14.199219 6.800781 14.199219 6.578125 14.378906 6.398438 14.601562 6.398438 14.820312 6.398438 15 6.578125 15 6.800781zM9 8C9 8.222656 8.820312 8.398438 8.601562 8.398438 8.378906 8.398438 8.199219 8.222656 8.199219 8 8.199219 7.777344 8.378906 7.601562 8.601562 7.601562 8.820312 7.601562 9 7.777344 9 8zM11.398438 8C11.398438 8.222656 11.222656 8.398438 11 8.398438 10.777344 8.398438 10.601562 8.222656 10.601562 8 10.601562 7.777344 10.777344 7.601562 11 7.601562 11.222656 7.601562 11.398438 7.777344 11.398438 8zM9 10.398438C9 10.621094 8.820312 10.800781 8.601562 10.800781 8.378906 10.800781 8.199219 10.621094 8.199219 10.398438 8.199219 10.179688 8.378906 10 8.601562 10 8.820312 10 9 10.179688 9 10.398438zM11.398438 10.398438C11.398438 10.621094 11.222656 10.800781 11 10.800781 10.777344 10.800781 10.601562 10.621094 10.601562 10.398438 10.601562 10.179688 10.777344 10 11 10 11.222656 10 11.398438 10.179688 11.398438 10.398438zM10.199219 9.199219C10.199219 9.421875 10.019531 9.601562 9.800781 9.601562 9.578125 9.601562 9.398438 9.421875 9.398438 9.199219 9.398438 8.980469 9.578125 8.800781 9.800781 8.800781 10.019531 8.800781 10.199219 8.980469 10.199219 9.199219zM12.601562 9.199219C12.601562 9.421875 12.421875 9.601562 12.199219 9.601562 11.980469 9.601562 11.800781 9.421875 11.800781 9.199219 11.800781 8.980469 11.980469 8.800781 12.199219 8.800781 12.421875 8.800781 12.601562 8.980469 12.601562 9.199219zM13.800781 8C13.800781 8.222656 13.621094 8.398438 13.398438 8.398438 13.179688 8.398438 13 8.222656 13 8 13 7.777344 13.179688 7.601562 13.398438 7.601562 13.621094 7.601562 13.800781 7.777344 13.800781 8zM16.199219 8C16.199219 8.222656 16.019531 8.398438 15.800781 8.398438 15.578125 8.398438 15.398438 8.222656 15.398438 8 15.398438 7.777344 15.578125 7.601562 15.800781 7.601562 16.019531 7.601562 16.199219 7.777344 16.199219 8zM13.800781 10.398438C13.800781 10.621094 13.621094 10.800781 13.398438 10.800781 13.179688 10.800781 13 10.621094 13 10.398438 13 10.179688 13.179688 10 13.398438 10 13.621094 10 13.800781 10.179688 13.800781 10.398438zM16.199219 10.398438C16.199219 10.621094 16.019531 10.800781 15.800781 10.800781 15.578125 10.800781 15.398438 10.621094 15.398438 10.398438 15.398438 10.179688 15.578125 10 15.800781 10 16.019531 10 16.199219 10.179688 16.199219 10.398438zM15 9.199219C15 9.421875 14.820312 9.601562 14.601562 9.601562 14.378906 9.601562 14.199219 9.421875 14.199219 9.199219 14.199219 8.980469 14.378906 8.800781 14.601562 8.800781 14.820312 8.800781 15 8.980469 15 9.199219zM10.199219 11.601562C10.199219 11.820312 10.019531 12 9.800781 12 9.578125 12 9.398438 11.820312 9.398438 11.601562 9.398438 11.378906 9.578125 11.199219 9.800781 11.199219 10.019531 11.199219 10.199219 11.378906 10.199219 11.601562zM12.601562 11.601562C12.601562 11.820312 12.421875 12 12.199219 12 11.980469 12 11.800781 11.820312 11.800781 11.601562 11.800781 11.378906 11.980469 11.199219 12.199219 11.199219 12.421875 11.199219 12.601562 11.378906 12.601562 11.601562zM15 11.601562C15 11.820312 14.820312 12 14.601562 12 14.378906 12 14.199219 11.820312 14.199219 11.601562 14.199219 11.378906 14.378906 11.199219 14.601562 11.199219 14.820312 11.199219 15 11.378906 15 11.601562zM9 12.800781C9 13.019531 8.820312 13.199219 8.601562 13.199219 8.378906 13.199219 8.199219 13.019531 8.199219 12.800781 8.199219 12.578125 8.378906 12.398438 8.601562 12.398438 8.820312 12.398438 9 12.578125 9 12.800781zM11.398438 12.800781C11.398438 13.019531 11.222656 13.199219 11 13.199219 10.777344 13.199219 10.601562 13.019531 10.601562 12.800781 10.601562 12.578125 10.777344 12.398438 11 12.398438 11.222656 12.398438 11.398438 12.578125 11.398438 12.800781zM9 15.199219C9 15.421875 8.820312 15.601562 8.601562 15.601562 8.378906 15.601562 8.199219 15.421875 8.199219 15.199219 8.199219 14.980469 8.378906 14.800781 8.601562 14.800781 8.820312 14.800781 9 14.980469 9 15.199219zM11.398438 15.199219C11.398438 15.421875 11.222656 15.601562 11 15.601562 10.777344 15.601562 10.601562 15.421875 10.601562 15.199219 10.601562 14.980469 10.777344 14.800781 11 14.800781 11.222656 14.800781 11.398438 14.980469 11.398438 15.199219zM10.199219 14C10.199219 14.222656 10.019531 14.398438 9.800781 14.398438 9.578125 14.398438 9.398438 14.222656 9.398438 14 9.398438 13.777344 9.578125 13.601562 9.800781 13.601562 10.019531 13.601562 10.199219 13.777344 10.199219 14zM12.601562 14C12.601562 14.222656 12.421875 14.398438 12.199219 14.398438 11.980469 14.398438 11.800781 14.222656 11.800781 14 11.800781 13.777344 11.980469 13.601562 12.199219 13.601562 12.421875 13.601562 12.601562 13.777344 12.601562 14zM13.800781 12.800781C13.800781 13.019531 13.621094 13.199219 13.398438 13.199219 13.179688 13.199219 13 13.019531 13 12.800781 13 12.578125 13.179688 12.398438 13.398438 12.398438 13.621094 12.398438 13.800781 12.578125 13.800781 12.800781zM16.199219 12.800781C16.199219 13.019531 16.019531 13.199219 15.800781 13.199219 15.578125 13.199219 15.398438 13.019531 15.398438 12.800781 15.398438 12.578125 15.578125 12.398438 15.800781 12.398438 16.019531 12.398438 16.199219 12.578125 16.199219 12.800781zM13.800781 15.199219C13.800781 15.421875 13.621094 15.601562 13.398438 15.601562 13.179688 15.601562 13 15.421875 13 15.199219 13 14.980469 13.179688 14.800781 13.398438 14.800781 13.621094 14.800781 13.800781 14.980469 13.800781 15.199219zM16.199219 15.199219C16.199219 15.421875 16.019531 15.601562 15.800781 15.601562 15.578125 15.601562 15.398438 15.421875 15.398438 15.199219 15.398438 14.980469 15.578125 14.800781 15.800781 14.800781 16.019531 14.800781 16.199219 14.980469 16.199219 15.199219zM15 14C15 14.222656 14.820312 14.398438 14.601562 14.398438 14.378906 14.398438 14.199219 14.222656 14.199219 14 14.199219 13.777344 14.378906 13.601562 14.601562 13.601562 14.820312 13.601562 15 13.777344 15 14zM15 14"/>
</svg>

<svg xmlns="http://www.w3.org/2000/svg" width="32" height="32" viewBox="0 0 24 24">
    <path d="M17.098 2.398h-1.97A.128.128 0 0 1 15 2.27V1.172C15 .527 14.473 0 13.828 0H10.57c-.644 0-1.172.527-1.172 1.172V2.27a.125.125 0 0 1-.128.128H7.3a1.907 1.907 0 0 0-1.902 1.903v12.558c0 .852.692 1.54 1.543 1.54h4.86v.402h-1.602a.4.4 0 0 0 0 .8h.403v1.766l1.03 1.031h.095c-.165.465-.606.801-1.125.801A1.603 1.603 0 0 1 9 21.602c0-.036-.012-.063-.02-.094-.093-1.098-.906-1.906-1.98-1.906-1.074 0-1.887.808-1.98 1.906-.008.031-.02.058-.02.094v2a.4.4 0 0 0 .8 0v-1.887c0-.762.505-1.317 1.2-1.317s1.2.555 1.2 1.317c0 .012.007.023.007.039A2.404 2.404 0 0 0 10.602 24c.964 0 1.773-.688 1.957-1.602h.207l1.035-1.03v-1.766h.398a.401.401 0 0 0 0-.8l-1.597-.001v-.403h4.859c.848 0 1.539-.691 1.539-1.539V4.301a1.905 1.905 0 0 0-1.902-1.903zM13 21.035l-.566.567h-.47l-.566-.567v-1.433H13zm5.2-4.176c0 .41-.333.743-.74.743h-4.858v-.403h2.644a.822.822 0 0 0 .524-.183l1.718-1.375a.82.82 0 0 0 .313-.649V4.434a.834.834 0 0 0-.836-.832H7.434a.83.83 0 0 0-.832.832v10.558a.82.82 0 0 0 .312.649l1.719 1.379a.83.83 0 0 0 .52.18H11.8v.402H6.94a.742.742 0 0 1-.742-.743V4.301c0-.606.496-1.102 1.102-1.102H9.27c.511 0 .93-.418.93-.93V1.173c0-.203.167-.371.37-.371h3.258a.37.37 0 0 1 .371.37V2.27c0 .511.418.93.93.93h1.969c.609 0 1.101.495 1.101 1.1zm-6-1.257a.398.398 0 0 0-.4.398v.395h-1.6a.4.4 0 0 0-.798 0h-.27l-1.734-1.403V4.434c0-.02.016-.036.036-.036h1.964a.401.401 0 0 0 .8 0h1.603a.401.401 0 1 0 .8 0H14.2a.401.401 0 0 0 .8 0h1.966c.02 0 .035.016.035.036l-.012 10.586-1.718 1.37c-.008.008-.012.008-.024.008H15a.4.4 0 0 0-.8 0h-1.598V16a.398.398 0 0 0-.403-.398zm0 0"/>
    <path d="M12.602 20.8a.401.401 0 1 1-.802-.004.401.401 0 0 1 .802.005zm0 0M13.398 1.602h-.796a.401.401 0 0 0-.8 0h-.802a.395.395 0 0 0-.398.398c0 .223.175.398.398.398h.8a.401.401 0 1 0 .802 0h.796a.398.398 0 1 0 0-.796zm0 0M9 5.602a.4.4 0 1 1-.8-.004.4.4 0 0 1 .8.004zm0 0M11.398 5.602a.398.398 0 1 1-.796 0 .398.398 0 1 1 .796 0zm0 0M13.8 5.602A.401.401 0 1 1 13 5.597a.401.401 0 0 1 .802.005zm0 0M16.2 5.602a.4.4 0 1 1-.801-.004.4.4 0 0 1 .8.004zm0 0M10.2 6.8a.4.4 0 1 1-.801-.003.4.4 0 0 1 .8.004zm0 0M12.602 6.8a.401.401 0 1 1-.802-.004.401.401 0 0 1 .802.005zm0 0M15 6.8a.4.4 0 1 1-.8-.003.4.4 0 0 1 .8.004zm0 0M9 8c0 .223-.18.398-.398.398a.398.398 0 1 1 0-.796C8.82 7.602 9 7.777 9 8zm0 0M11.398 8a.395.395 0 0 1-.398.398.395.395 0 0 1-.398-.398c0-.223.175-.398.398-.398.223 0 .398.175.398.398zm0 0M9 10.398a.401.401 0 1 1-.802.003.401.401 0 0 1 .802-.003zm0 0M11.398 10.398a.398.398 0 1 1-.796 0 .398.398 0 1 1 .796 0zm0 0M10.2 9.2a.401.401 0 1 1-.803.002.401.401 0 0 1 .802-.003zm0 0M12.602 9.2a.401.401 0 1 1 0 0zm0 0M13.8 8c0 .223-.179.398-.402.398a.398.398 0 1 1 0-.796c.223 0 .403.175.403.398zm0 0M16.2 8c0 .223-.18.398-.4.398a.398.398 0 1 1 0-.796c.22 0 .4.175.4.398zm0 0M13.8 10.398a.401.401 0 1 1 0 0zm0 0M16.2 10.398a.401.401 0 1 1-.803.003.401.401 0 0 1 .802-.003zm0 0M15 9.2a.401.401 0 1 1-.802.002.401.401 0 0 1 .802-.003zm0 0M10.2 11.602a.4.4 0 1 1-.801-.004.4.4 0 0 1 .8.004zm0 0M12.602 11.602a.401.401 0 1 1-.802-.005.401.401 0 0 1 .802.005zm0 0M15 11.602a.4.4 0 1 1-.8-.004.4.4 0 0 1 .8.004zm0 0M9 12.8a.4.4 0 1 1-.8-.003.4.4 0 0 1 .8.004zm0 0M11.398 12.8a.398.398 0 1 1-.796 0 .398.398 0 1 1 .796 0zm0 0M9 15.2a.401.401 0 1 1-.802.002.401.401 0 0 1 .802-.003zm0 0M11.398 15.2a.398.398 0 1 1-.796 0 .398.398 0 1 1 .796 0zm0 0M10.2 14c0 .223-.18.398-.4.398a.398.398 0 1 1 0-.796c.22 0 .4.175.4.398zm0 0M12.602 14c0 .223-.18.398-.403.398a.398.398 0 1 1 0-.796c.223 0 .403.175.403.398zm0 0M13.8 12.8a.401.401 0 1 1-.801-.004.401.401 0 0 1 .802.005zm0 0M16.2 12.8a.4.4 0 1 1-.801-.003.4.4 0 0 1 .8.004zm0 0M13.8 15.2a.401.401 0 1 1 0 0zm0 0M16.2 15.2a.401.401 0 1 1-.803.002.401.401 0 0 1 .802-.003zm0 0M15 14c0 .223-.18.398-.398.398a.398.398 0 1 1 0-.796c.218 0 .398.175.398.398zm0 0"/>
</svg>
